X:1
T:Hut in the Bog
R:Reel
M:4/4
K:C
A3 BA G E2 | AG AB cd B c | A3 BA G E2 | ge dB cd Bc | 
A2 BA{B} AG E2 | AG AB cd Bc | A3 BA G E2 | ge dB c2 B/c/d || 
e3 g{g} ed cd | eg ec d2 cd | e3 g{g} ed cd |eg ec de/d/ cd | 
e3 g{g} ed cd | e=fge d2 cd | e ~g3 e ~a3 |  ge dB c2 B/c/d || 
ecgc e ~c3 | ecge de/d/ cd | ecgc eccb  | agec de/d/ cd | 
g ~c3 G ~c3 | ecge de/d/ cd | e ~g3 e ~a3 |  ge dB c2 cd Bc||

